X:318
T:Reel 318
M:4/4
K:Amix
L:1/8
AF|E>A, (3A,A,A, EDB,D|E>A, (3A,A,A, A,2DC|B,>G, (3G,G,G, B,>G, (3DA,G, |GFGA GAFD|EA,A,A, A,A,A,B,DB,|A,AAG A2GA|BcBA GABA|GEDB, A,2|CD|EAAG AGAB|AGEF GEDF|EAAG AFAF|GEDB, A,B,CD|EAAG AGAG|EAAB cABA|GEDB, CB,CE|GEDB, A,2|
